resources/haticons/SVG/sentiment_very_dissatisfied.svg

<!-- Generated by IcoMoon.io -->
<svg version="1.1" xmlns="http://www.w3.org/2000/svg" width="24" height="24" viewBox="0 0 24 24">
<title>sentiment_very_dissatisfied</title>
<path d="M12 14.016q1.734 0 3.117 0.961t1.992 2.508h-1.641q-1.172-1.969-3.469-1.969t-3.469 1.969h-1.641q0.609-1.547 1.992-2.508t3.117-0.961zM12 20.016q3.281 0 5.648-2.367t2.367-5.648-2.367-5.648-5.648-2.367-5.648 2.367-2.367 5.648 2.367 5.648 5.648 2.367zM12 2.016q4.125 0 7.055 2.93t2.93 7.055-2.93 7.055-7.055 2.93-7.055-2.93-2.93-7.055 2.93-7.055 7.055-2.93zM6.984 9.516q0-0.609 0.445-1.055t1.055-0.445 1.055 0.445 0.445 1.055-0.445 1.055-1.055 0.445-1.055-0.445-0.445-1.055zM14.016 9.516q0-0.609 0.445-1.055t1.055-0.445 1.055 0.445 0.445 1.055-0.445 1.055-1.055 0.445-1.055-0.445-0.445-1.055z"></path>
</svg>

<svg xmlns="http://www.w3.org/2000/svg" width="24" height="24"><path d="M12 14.016q1.734 0 3.117.961t1.992 2.508h-1.641q-1.172-1.969-3.469-1.969T8.53 17.485H6.889q.609-1.547 1.992-2.508t3.117-.961zm0 6q3.281 0 5.648-2.367t2.367-5.648-2.367-5.648T12 3.986 6.352 6.353t-2.367 5.648 2.367 5.648T12 20.016zm0-18q4.125 0 7.055 2.93t2.93 7.055-2.93 7.055T12 21.986t-7.055-2.93-2.93-7.055 2.93-7.055T12 2.016zm-5.016 7.5q0-.609.445-1.055t1.055-.445 1.055.445.445 1.055-.445 1.055-1.055.445-1.055-.445-.445-1.055zm7.032 0q0-.609.445-1.055t1.055-.445 1.055.445.445 1.055-.445 1.055-1.055.445-1.055-.445-.445-1.055z"/></svg>
